svg/emoji_u1f4fc.svg

<svg enable-background="new 0 0 128 128" viewBox="0 0 128 128" xmlns="http://www.w3.org/2000/svg"><radialGradient id="h" cx="63.333" cy="54.833" r="32.002" gradientTransform="matrix(4.4999e-11 1 -2.9061 1.3077e-10 222.68 -8.5)" gradientUnits="userSpaceOnUse"><stop stop-color="#B3E5FC" offset="0"/><stop stop-color="#4FC3F7" offset="1"/></radialGradient><rect x="8" y="40" width="112" height="48" fill="url(#h)"/><radialGradient id="g" cx="87.917" cy="43.667" r="40.84" gradientUnits="userSpaceOnUse"><stop stop-color="#616161" offset="0"/><stop stop-color="#212121" offset="1"/></radialGradient><circle cx="88" cy="64" r="20" fill="url(#g)"/><radialGradient id="f" cx="88" cy="52.833" r="21.412" gradientUnits="userSpaceOnUse"><stop stop-color="#eee" offset="0"/><stop stop-color="#BDBDBD" offset="1"/></radialGradient><circle cx="88" cy="64" r="10" fill="url(#f)"/><circle cx="88" cy="64" r="16" fill="none" opacity=".2" stroke="#eee" stroke-miterlimit="10" stroke-width=".9412"/><circle cx="88" cy="64" r="13" fill="none" opacity=".2" stroke="#eee" stroke-miterlimit="10"/><radialGradient id="e" cx="39.833" cy="43.75" r="40.847" gradientUnits="userSpaceOnUse"><stop stop-color="#616161" offset="0"/><stop stop-color="#212121" offset="1"/></radialGradient><circle cx="40" cy="64" r="20" fill="url(#e)"/><radialGradient id="d" cx="39.667" cy="53.333" r="21.006" gradientUnits="userSpaceOnUse"><stop stop-color="#eee" offset="0"/><stop stop-color="#BDBDBD" offset="1"/></radialGradient><circle cx="40" cy="64" r="10" fill="url(#d)"/><circle cx="40" cy="64" r="16" fill="none" opacity=".2" stroke="#eee" stroke-miterlimit="10" stroke-width=".9412"/><circle cx="40" cy="64" r="13" fill="none" opacity=".2" stroke="#eee" stroke-miterlimit="10"/><g opacity=".2"><path d="m88 55c4.96 0 9 4.04 9 9s-4.04 9-9 9-9-4.04-9-9 4.04-9 9-9m0-1c-5.52 0-10 4.48-10 10s4.48 10 10 10 10-4.48 10-10-4.48-10-10-10z" fill="#424242"/></g><g opacity=".2"><path d="m40 55c4.96 0 9 4.04 9 9s-4.04 9-9 9-9-4.04-9-9 4.04-9 9-9m0-1c-5.52 0-10 4.48-10 10s4.48 10 10 10 10-4.48 10-10-4.48-10-10-10z" fill="#424242"/></g><g opacity=".2"><path d="m40 46c9.93 0 18 8.07 18 18s-8.07 18-18 18-18-8.07-18-18 8.07-18 18-18m0-2c-11.05 0-20 8.95-20 20s8.95 20 20 20 20-8.95 20-20-8.95-20-20-20z" fill="#424242"/></g><g opacity=".2"><path d="m88 46c9.93 0 18 8.07 18 18s-8.07 18-18 18-18-8.07-18-18 8.07-18 18-18m0-2c-11.05 0-20 8.95-20 20s8.95 20 20 20 20-8.95 20-20-8.95-20-20-20z" fill="#424242"/></g><radialGradient id="c" cx="64.5" cy="28.75" r="87.882" gradientUnits="userSpaceOnUse"><stop stop-color="#616161" offset="0"/><stop stop-color="#212121" offset="1"/></radialGradient><path d="m4 32v64c0 2.21 1.79 4 4 4h112c2.21 0 4-1.79 4-4v-64c0-2.21-1.79-4-4-4h-112c-2.21 0-4 1.79-4 4zm36 46c0 1.1-0.9 2-2 2h-18c-2.21 0-8-7.16-8-16s5.79-16 8-16h18c1.1 0 2 0.9 2 2v28zm68 2h-18c-1.1 0-2-0.9-2-2v-28c0-1.1 0.9-2 2-2h18c2.21 0 8 7.16 8 16s-5.79 16-8 16z" fill="url(#c)"/><rect x="12" y="38" width="104" height="2" fill="#424242" opacity=".2"/><rect x="12" y="42" width="104" height="2" fill="#424242" opacity=".2"/><rect x="12" y="34" width="104" height="2" fill="#424242" opacity=".2"/><rect x="12" y="88" width="104" height="2" fill="#424242" opacity=".2"/><rect x="12" y="92" width="104" height="2" fill="#424242" opacity=".2"/><rect x="12" y="84" width="104" height="2" fill="#424242" opacity=".2"/><g opacity=".2"><path d="m82 48c1.1 0 2 0.9 2 2v28c0 1.1-0.9 2-2 2h-36c-1.1 0-2-0.9-2-2v-28c0-1.1 0.9-2 2-2h36m0-2h-36c-2.21 0-4 1.79-4 4v28c0 2.21 1.79 4 4 4h36c2.21 0 4-1.79 4-4v-28c0-2.21-1.79-4-4-4z" fill="#424242"/></g><g opacity=".2"><path d="m120 31c0.55 0 1 0.45 1 1v64c0 0.55-0.45 1-1 1h-112c-0.55 0-1-0.45-1-1v-64c0-0.55 0.45-1 1-1h112m0-3h-112c-2.21 0-4 1.79-4 4v64c0 2.21 1.79 4 4 4h112c2.21 0 4-1.79 4-4v-64c0-2.21-1.79-4-4-4z" fill="#eee"/></g><radialGradient id="b" cx="63.5" cy="48.5" r="21.844" gradientUnits="userSpaceOnUse"><stop stop-color="#EF5350" offset="0"/><stop stop-color="#E53935" offset="1"/></radialGradient><path d="M84,50c0-1.1-0.9-2-2-2H46c-1.1,0-2,0.9-2,2v6h40V50z" fill="url(#b)"/><radialGradient id="a" cx="63.333" cy="55.167" r="28.404" gradientUnits="userSpaceOnUse"><stop stop-color="#FAFAFA" offset="0"/><stop stop-color="#eee" offset="1"/></radialGradient><path d="M44,56v22c0,1.1,0.9,2,2,2h36c1.1,0,2-0.9,2-2V56H44z" fill="url(#a)"/><path d="m77 66h-26c-0.55 0-1-0.45-1-1v-2c0-0.55 0.45-1 1-1h26c0.55 0 1 0.45 1 1v2c0 0.55-0.45 1-1 1z" fill="#BDBDBD"/><path d="m77 74h-26c-0.55 0-1-0.45-1-1v-2c0-0.55 0.45-1 1-1h26c0.55 0 1 0.45 1 1v2c0 0.55-0.45 1-1 1z" fill="#BDBDBD"/><g opacity=".2"><path d="m108 48c2.21 0 8 7.16 8 16s-5.79 16-8 16h-18c-1.1 0-2-0.9-2-2v-28c0-1.1 0.9-2 2-2h18m-70 0c1.1 0 2 0.9 2 2v28c0 1.1-0.9 2-2 2h-18c-2.21 0-8-7.16-8-16s5.79-16 8-16h18m70-2h-18c-2.21 0-4 1.79-4 4v28c0 2.21 1.79 4 4 4h18c3.77 0 10-8.41 10-18s-6.23-18-10-18zm-70 0h-18c-3.77 0-10 8.41-10 18s6.23 18 10 18h18c2.21 0 4-1.79 4-4v-28c0-2.21-1.79-4-4-4z" fill="#424242"/></g></svg>

<svg width="128" height="128" style="enable-background:new 0 0 128 128;" xmlns="http://www.w3.org/2000/svg" xmlns:xlink="http://www.w3.org/1999/xlink">
  <g>
    <radialGradient id="SVGID_1_" cx="63.3333" cy="54.8333" gradientTransform="matrix(4.499940e-11 1 -2.9061 1.307724e-10 222.6841 -8.5)" gradientUnits="userSpaceOnUse" r="32.0017">
      <stop offset="0" style="stop-color:#B3E5FC"/>
      <stop offset="1" style="stop-color:#4FC3F7"/>
    </radialGradient>
    <rect height="48" style="fill:url(#SVGID_1_);" width="112" x="8" y="40"/>
    <radialGradient id="SVGID_2_" cx="87.9167" cy="43.6667" gradientUnits="userSpaceOnUse" r="40.8402">
      <stop offset="0" style="stop-color:#616161"/>
      <stop offset="1" style="stop-color:#212121"/>
    </radialGradient>
    <circle cx="88" cy="64" r="20" style="fill:url(#SVGID_2_);"/>
    <radialGradient id="SVGID_3_" cx="88" cy="52.8333" gradientUnits="userSpaceOnUse" r="21.412">
      <stop offset="0" style="stop-color:#EEEEEE"/>
      <stop offset="1" style="stop-color:#BDBDBD"/>
    </radialGradient>
    <circle cx="88" cy="64" r="10" style="fill:url(#SVGID_3_);"/>
    <circle cx="88" cy="64" r="16" style="opacity:0.2;fill:none;stroke:#EEEEEE;stroke-width:0.9412;stroke-miterlimit:10;"/>
    <circle cx="88" cy="64" r="13" style="opacity:0.2;fill:none;stroke:#EEEEEE;stroke-miterlimit:10;"/>
    <radialGradient id="SVGID_4_" cx="39.8333" cy="43.75" gradientUnits="userSpaceOnUse" r="40.8469">
      <stop offset="0" style="stop-color:#616161"/>
      <stop offset="1" style="stop-color:#212121"/>
    </radialGradient>
    <circle cx="40" cy="64" r="20" style="fill:url(#SVGID_4_);"/>
    <radialGradient id="SVGID_5_" cx="39.6667" cy="53.3333" gradientUnits="userSpaceOnUse" r="21.006">
      <stop offset="0" style="stop-color:#EEEEEE"/>
      <stop offset="1" style="stop-color:#BDBDBD"/>
    </radialGradient>
    <circle cx="40" cy="64" r="10" style="fill:url(#SVGID_5_);"/>
    <circle cx="40" cy="64" r="16" style="opacity:0.2;fill:none;stroke:#EEEEEE;stroke-width:0.9412;stroke-miterlimit:10;"/>
    <circle cx="40" cy="64" r="13" style="opacity:0.2;fill:none;stroke:#EEEEEE;stroke-miterlimit:10;"/>
    <g style="opacity:0.2;">
      <path d="M88,55c4.96,0,9,4.04,9,9s-4.04,9-9,9s-9-4.04-9-9S83.04,55,88,55 M88,54c-5.52,0-10,4.48-10,10 s4.48,10,10,10s10-4.48,10-10S93.52,54,88,54L88,54z" style="fill:#424242;"/>
    </g>
    <g style="opacity:0.2;">
      <path d="M40,55c4.96,0,9,4.04,9,9s-4.04,9-9,9s-9-4.04-9-9S35.04,55,40,55 M40,54c-5.52,0-10,4.48-10,10 s4.48,10,10,10s10-4.48,10-10S45.52,54,40,54L40,54z" style="fill:#424242;"/>
    </g>
    <g style="opacity:0.2;">
      <path d="M40,46c9.93,0,18,8.07,18,18s-8.07,18-18,18s-18-8.07-18-18S30.07,46,40,46 M40,44 c-11.05,0-20,8.95-20,20s8.95,20,20,20s20-8.95,20-20S51.05,44,40,44L40,44z" style="fill:#424242;"/>
    </g>
    <g style="opacity:0.2;">
      <path d="M88,46c9.93,0,18,8.07,18,18s-8.07,18-18,18s-18-8.07-18-18S78.07,46,88,46 M88,44 c-11.05,0-20,8.95-20,20s8.95,20,20,20s20-8.95,20-20S99.05,44,88,44L88,44z" style="fill:#424242;"/>
    </g>
    <radialGradient id="SVGID_6_" cx="64.5" cy="28.75" gradientUnits="userSpaceOnUse" r="87.8822">
      <stop offset="0" style="stop-color:#616161"/>
      <stop offset="1" style="stop-color:#212121"/>
    </radialGradient>
    <path d="M4,32v64c0,2.21,1.79,4,4,4h112c2.21,0,4-1.79,4-4V32c0-2.21-1.79-4-4-4H8 C5.79,28,4,29.79,4,32z M40,78c0,1.1-0.9,2-2,2H20c-2.21,0-8-7.16-8-16c0-8.84,5.79-16,8-16h18c1.1,0,2,0.9,2,2V78z M108,80H90 c-1.1,0-2-0.9-2-2V50c0-1.1,0.9-2,2-2h18c2.21,0,8,7.16,8,16S110.21,80,108,80z" style="fill:url(#SVGID_6_);"/>
    <rect height="2" style="opacity:0.2;fill:#424242;" width="104" x="12" y="38"/>
    <rect height="2" style="opacity:0.2;fill:#424242;" width="104" x="12" y="42"/>
    <rect height="2" style="opacity:0.2;fill:#424242;" width="104" x="12" y="34"/>
    <rect height="2" style="opacity:0.2;fill:#424242;" width="104" x="12" y="88"/>
    <rect height="2" style="opacity:0.2;fill:#424242;" width="104" x="12" y="92"/>
    <rect height="2" style="opacity:0.2;fill:#424242;" width="104" x="12" y="84"/>
    <g style="opacity:0.2;">
      <path d="M82,48c1.1,0,2,0.9,2,2v6v22c0,1.1-0.9,2-2,2H46c-1.1,0-2-0.9-2-2V56v-6c0-1.1,0.9-2,2-2H82 M82,46 H46c-2.21,0-4,1.79-4,4v6v22c0,2.21,1.79,4,4,4h36c2.21,0,4-1.79,4-4V56v-6C86,47.79,84.21,46,82,46L82,46z" style="fill:#424242;"/>
    </g>
    <g style="opacity:0.2;">
      <path d="M120,31c0.55,0,1,0.45,1,1v64c0,0.55-0.45,1-1,1H8c-0.55,0-1-0.45-1-1V32c0-0.55,0.45-1,1-1H120 M120,28H8c-2.21,0-4,1.79-4,4v64c0,2.21,1.79,4,4,4h112c2.21,0,4-1.79,4-4V32C124,29.79,122.21,28,120,28L120,28z" style="fill:#EEEEEE;"/>
    </g>
    <g>
      <radialGradient id="SVGID_7_" cx="63.5" cy="48.5" gradientUnits="userSpaceOnUse" r="21.8435">
        <stop offset="0" style="stop-color:#EF5350"/>
        <stop offset="1" style="stop-color:#E53935"/>
      </radialGradient>
      <path d="M84,50c0-1.1-0.9-2-2-2H46c-1.1,0-2,0.9-2,2v6h40V50z" style="fill:url(#SVGID_7_);"/>
      <radialGradient id="SVGID_8_" cx="63.3333" cy="55.1667" gradientUnits="userSpaceOnUse" r="28.4038">
        <stop offset="0" style="stop-color:#FAFAFA"/>
        <stop offset="1" style="stop-color:#EEEEEE"/>
      </radialGradient>
      <path d="M44,56v22c0,1.1,0.9,2,2,2h36c1.1,0,2-0.9,2-2V56H44z" style="fill:url(#SVGID_8_);"/>
    </g>
    <path d="M77,66H51c-0.55,0-1-0.45-1-1v-2c0-0.55,0.45-1,1-1h26c0.55,0,1,0.45,1,1v2C78,65.55,77.55,66,77,66 z" style="fill:#BDBDBD;"/>
    <path d="M77,74H51c-0.55,0-1-0.45-1-1v-2c0-0.55,0.45-1,1-1h26c0.55,0,1,0.45,1,1v2C78,73.55,77.55,74,77,74 z" style="fill:#BDBDBD;"/>
    <g style="opacity:0.2;">
      <path d="M108,48c2.21,0,8,7.16,8,16s-5.79,16-8,16H90c-1.1,0-2-0.9-2-2V50c0-1.1,0.9-2,2-2H108 M38,48 c1.1,0,2,0.9,2,2v28c0,1.1-0.9,2-2,2H20c-2.21,0-8-7.16-8-16c0-8.84,5.79-16,8-16H38 M108,46H90c-2.21,0-4,1.79-4,4v28 c0,2.21,1.79,4,4,4h18c3.77,0,10-8.41,10-18S111.77,46,108,46L108,46z M38,46H20c-3.77,0-10,8.41-10,18s6.23,18,10,18h18 c2.21,0,4-1.79,4-4V50C42,47.79,40.21,46,38,46L38,46z" style="fill:#424242;"/>
    </g>
  </g>
</svg>
